resources/svg/sort-desc.svg

<svg xmlns="http://www.w3.org/2000/svg" viewBox="0 0 24 24" fill="currentColor">
    <g>
        <path fill="none" d="M0 0H24V24H0z"/>
        <path d="M20 4v12h3l-4 5-4-5h3V4h2zm-8 14v2H3v-2h9zm2-7v2H3v-2h11zm0-7v2H3V4h11z"/>
    </g>
</svg>

<svg fill="currentColor" viewBox="0 0 24 24" xmlns="http://www.w3.org/2000/svg"><path d="M20 4V16H23L19 21L15 16H18V4H20ZM12 18V20H3V18H12ZM14 11V13H3V11H14ZM14 4V6H3V4H14Z"/></svg>
